X: 25
P: No. XXV.
M: 6/8
L: 1/8
K: D
V: 1
d/e/ |\
fef def | ede cde | dcd Bed | cAA A3 |\
V: 2 clef=bass middle=d
z |\
d3 f3 | e3 A3 | B2G A2A | d3 D2z |\
d3 f3 | a3 A3 | B2G A2A | d3 D2 |]
z |\
d'3 d3 | a3 A3 | d3 e3 | a3 A3 |\
g3 e3 | f3 d3 | g3 a3 | d3 D2 :|

